Origami/22x22/apps/emerald-theme-manager-icon.svg

<svg width="22" height="22" version="1" xmlns="http://www.w3.org/2000/svg">
 <path d="m6.4285449 2.5000002a1.1429779 1.2001345 0 0 0 -0.83371 0.379106l-4.285739 4.8000589a1.1429779 1.2001345 0 0 0 -0.032366 1.6037306l8.8571941 10.800131a1.1429779 1.2001345 0 0 0 1.732151 0l8.857193-10.800131a1.1429779 1.2001345 0 0 0 -0.03236 -1.6037306l-4.285742-4.8000589a1.1429779 1.2001345 0 0 0 -0.833713 -0.379106h-4.571454-4.5714541z" style="opacity:.2"/>
 <path d="m6.4285449 2.0000001a1.1429779 1.2001345 0 0 0 -0.83371 0.379106l-4.285739 4.8000589a1.1429779 1.2001345 0 0 0 -0.0323657 1.6037299l8.8571938 10.800131a1.1429779 1.2001345 0 0 0 1.732151 0l8.857193-10.800131a1.1429779 1.2001345 0 0 0 -0.032361 -1.6037299l-4.285741-4.8000589a1.1429779 1.2001345 0 0 0 -0.833713 -0.379106h-4.571454-4.5714541z" style="fill:#87d53c"/>
 <path d="m6.4277349 1.9999997a1.1429779 1.2001345 0 0 0 -0.8320313 0.3789062l-4.2871093 4.8007813a1.1429779 1.2001345 0 0 0 -0.3066407 0.8203125h19.998046a1.1429779 1.2001345 0 0 0 -0.308594 -0.8203125l-4.287109-4.8007813a1.1429779 1.2001345 0 0 0 -0.832031 -0.3789062h-4.572266-4.5722651z" style="opacity:.2"/>
 <path d="m11 1.9999997 5 6-9.9999994-2e-7z" style="fill:#87d53c"/>
 <path d="m11 20 5-12-9.9999994 2e-7z" style="opacity:.2"/>
 <path d="m6.4277349 1.9999997a1.1429779 1.2001345 0 0 0 -0.8320313 0.3789062l-4.2871093 4.8007813a1.1429779 1.2001345 0 0 0 -0.28125 1.0703125 1.1429779 1.2001345 0 0 1 0.28125 -0.5703125l4.2871093-4.8007813a1.1429779 1.2001345 0 0 1 0.8320313 -0.3789062h4.5722651 4.572266a1.1429779 1.2001345 0 0 1 0.832031 0.3789062l4.287109 4.8007813a1.1429779 1.2001345 0 0 1 0.283203 0.5703125 1.1429779 1.2001345 0 0 0 -0.283203 -1.0703125l-4.287109-4.8007813a1.1429779 1.2001345 0 0 0 -0.832031 -0.3789062h-4.572266-4.5722651z" style="fill:#ffffff;opacity:.2"/>
</svg>

<svg xmlns="http://www.w3.org/2000/svg" width="22" height="22" version="1">
 <path style="opacity:0.2" d="m 6.4285449,2.5000002 a 1.1429779,1.2001345 0 0 0 -0.83371,0.379106 L 1.3090959,7.6791651 A 1.1429779,1.2001345 0 0 0 1.2767299,9.2828957 L 10.133924,20.083027 a 1.1429779,1.2001345 0 0 0 1.732151,0 L 20.723268,9.2828957 A 1.1429779,1.2001345 0 0 0 20.690908,7.6791651 L 16.405166,2.8791062 a 1.1429779,1.2001345 0 0 0 -0.833713,-0.379106 l -4.571454,0 -4.5714541,0 z"/>
 <path style="fill:#87d53c" d="m 6.4285449,2.0000001 a 1.1429779,1.2001345 0 0 0 -0.83371,0.379106 L 1.3090959,7.179165 A 1.1429779,1.2001345 0 0 0 1.2767302,8.7828949 L 10.133924,19.583026 a 1.1429779,1.2001345 0 0 0 1.732151,0 L 20.723268,8.7828949 A 1.1429779,1.2001345 0 0 0 20.690907,7.179165 L 16.405166,2.3791061 a 1.1429779,1.2001345 0 0 0 -0.833713,-0.379106 l -4.571454,0 -4.5714541,0 z"/>
 <path style="opacity:0.2" d="M 6.4277349,1.9999997 A 1.1429779,1.2001345 0 0 0 5.5957036,2.3789059 L 1.3085943,7.1796872 A 1.1429779,1.2001345 0 0 0 1.0019536,7.9999997 L 21,7.9999997 A 1.1429779,1.2001345 0 0 0 20.691406,7.1796872 L 16.404297,2.3789059 A 1.1429779,1.2001345 0 0 0 15.572266,1.9999997 l -4.572266,0 -4.5722651,0 z"/>
 <path style="fill:#87d53c" d="m 11,1.9999997 5,6 -9.9999994,-2e-7 z"/>
 <path style="opacity:0.2" d="m 11,20 5,-12.0000003 -9.9999994,2e-7 z"/>
 <path style="opacity:0.2;fill:#ffffff" d="M 6.4277349,1.9999997 A 1.1429779,1.2001345 0 0 0 5.5957036,2.3789059 L 1.3085943,7.1796872 a 1.1429779,1.2001345 0 0 0 -0.28125,1.0703125 1.1429779,1.2001345 0 0 1 0.28125,-0.5703125 L 5.5957036,2.8789059 A 1.1429779,1.2001345 0 0 1 6.4277349,2.4999997 l 4.5722651,0 4.572266,0 a 1.1429779,1.2001345 0 0 1 0.832031,0.3789062 l 4.287109,4.8007813 A 1.1429779,1.2001345 0 0 1 20.974609,8.2499997 1.1429779,1.2001345 0 0 0 20.691406,7.1796872 L 16.404297,2.3789059 A 1.1429779,1.2001345 0 0 0 15.572266,1.9999997 l -4.572266,0 -4.5722651,0 z"/>
</svg>
